docs/public/static/branding/companies/amazon-dark.svg

<svg width="81" height="23" viewBox="0 0 81 23" fill="none" xmlns="http://www.w3.org/2000/svg">
<path d="M44.5129 2.50718V0.778454C44.5149 0.515318 44.7132 0.339339 44.9531 0.339339H52.7054C52.9551 0.339339 53.1531 0.520319 53.1531 0.776906V2.26214C53.1501 2.5073 52.9405 2.83342 52.5692 3.34969L48.5502 9.08309C50.0417 9.0482 51.6197 9.27097 52.9749 10.0332C53.2802 10.2056 53.3631 10.457 53.3864 10.7069V12.5557C53.3864 12.8112 53.1073 13.1063 52.8169 12.9526C50.4282 11.6996 47.2614 11.5634 44.6231 12.9676C44.3528 13.112 44.0716 12.8228 44.0716 12.5673V10.8086C44.0716 10.5283 44.0761 10.0476 44.3595 9.61996L49.0115 2.94439H44.9617C44.7143 2.94427 44.5158 2.76781 44.5129 2.50718V2.50718ZM16.2328 13.3166H13.8739C13.6494 13.3029 13.4686 13.1341 13.4519 12.9184L13.4541 0.807985C13.4541 0.566518 13.6561 0.371846 13.9086 0.371846L16.1052 0.37101C16.3353 0.383631 16.5193 0.557467 16.5344 0.778454V2.36013H16.5776C17.1488 0.830843 18.2292 0.11609 19.681 0.11609C21.1573 0.11609 22.0794 0.830843 22.7418 2.36013C23.3148 0.830843 24.6126 0.11609 26.0011 0.11609C26.9925 0.11609 28.0703 0.524606 28.7318 1.44213C29.4813 2.45872 29.3264 3.93919 29.3264 5.23606L29.3255 12.88C29.3255 13.1229 29.1198 13.3165 28.8696 13.3165H26.5143C26.2765 13.3028 26.0908 13.1146 26.0908 12.8825L26.0898 6.46053C26.0898 5.95141 26.1329 4.67871 26.0227 4.19232C25.8453 3.37731 25.3172 3.14799 24.6347 3.14799C24.0648 3.14799 23.469 3.53043 23.2259 4.14219C22.9849 4.75431 23.0059 5.77138 23.0059 6.46053V12.8798C23.0059 13.1226 22.8021 13.3162 22.5508 13.3162H20.1951C19.9579 13.3026 19.771 13.1143 19.771 12.8823L19.768 6.46029C19.768 5.10877 19.9894 3.12239 18.3167 3.12239C16.6198 3.12239 16.6863 5.06091 16.6863 6.46029L16.6854 12.8795C16.6852 13.123 16.4854 13.3166 16.2328 13.3166V13.3166ZM59.8294 0.11621C63.3271 0.11621 65.2245 3.12299 65.2245 6.94513C65.2245 10.638 63.1287 13.5722 59.8294 13.5722C56.3933 13.5722 54.5202 10.56 54.5202 6.81618C54.5202 3.04714 56.4145 0.11621 59.8294 0.11621V0.11621ZM59.8518 2.58683C58.11 2.58683 57.9995 4.95947 57.9995 6.43279C57.9995 7.91147 57.9773 11.0699 59.8293 11.0699C61.6529 11.0699 61.7396 8.52276 61.7396 6.9724C61.7396 5.95176 61.6967 4.72919 61.3875 3.76011C61.1241 2.91784 60.5955 2.58683 59.8518 2.58683V2.58683ZM69.7626 13.3166H67.4107C67.173 13.3029 66.9874 13.1147 66.9874 12.8826L66.9824 0.767739C67.0031 0.545561 67.1984 0.371726 67.4365 0.371726L69.6269 0.37089C69.834 0.381844 70.0035 0.522703 70.0462 0.711065V2.56207H70.0906C70.7509 0.907285 71.6718 0.11597 73.3015 0.11597C74.3599 0.11597 75.3968 0.498888 76.0573 1.54488C76.6702 2.51004 76.6702 4.14231 76.6702 5.31381V12.934C76.643 13.151 76.4495 13.3165 76.2228 13.3165H73.8543C73.6392 13.3037 73.4606 13.1407 73.4334 12.934V6.35909C73.4334 5.03626 73.5899 3.09679 71.9575 3.09679C71.3841 3.09679 70.8612 3.48019 70.5955 4.06671C70.2658 4.80611 70.2226 5.54277 70.2226 6.35921V12.8801C70.2166 13.123 70.0137 13.3166 69.7626 13.3166V13.3166ZM11.6101 11.0946C11.181 10.497 10.722 10.0147 10.722 8.90901V5.23308C10.722 3.67784 10.8333 2.24845 9.68418 1.1759C8.77844 0.306358 7.27856 0 6.12993 0C3.88494 0 1.38145 0.837871 0.855535 3.61176C0.799574 3.90847 1.01437 4.06242 1.20797 4.106L3.49428 4.35378C3.70681 4.34282 3.86291 4.131 3.90387 3.91895C4.10057 2.96225 4.90105 2.50158 5.80071 2.50158C6.28436 2.50158 6.83611 2.68137 7.12437 3.11537C7.45526 3.59937 7.41084 4.26495 7.41084 4.82683V5.13056C6.04182 5.28452 4.25404 5.3862 2.97611 5.94867C1.49742 6.58853 0.461426 7.88861 0.461426 9.8057C0.461426 12.2589 2.005 13.4847 3.98936 13.4847C5.66998 13.4847 6.58405 13.0882 7.8802 11.7689C8.30884 12.389 8.44874 12.6882 9.23172 13.3422C9.40782 13.4354 9.63262 13.428 9.78943 13.2866L9.79467 13.2923C10.2661 12.8721 11.1234 12.128 11.6027 11.7247C11.794 11.5659 11.7602 11.3084 11.6101 11.0946V11.0946ZM6.96887 10.0348C6.5931 10.6955 5.99872 11.1047 5.33707 11.1047C4.43169 11.1047 3.90232 10.4147 3.90232 9.39587C3.90232 7.3877 5.70546 7.02336 7.4112 7.02336V7.53296C7.4112 8.44965 7.43275 9.2168 6.96887 10.0348V10.0348ZM42.533 11.0946C42.1006 10.497 41.6424 10.0147 41.6424 8.90901V5.23308C41.6424 3.67784 41.7529 2.24845 40.6037 1.1759C39.702 0.306358 38.1999 0 37.0536 0C34.8091 0 32.3041 0.837871 31.7787 3.61176C31.7227 3.90847 31.9375 4.06242 32.1308 4.106L34.4157 4.35378C34.6315 4.34282 34.7864 4.131 34.8267 3.91895C35.0246 2.96225 35.8216 2.50158 36.7226 2.50158C37.2074 2.50158 37.7603 2.68137 38.0458 3.11537C38.3758 3.59937 38.3317 4.26495 38.3317 4.82683V5.13056C36.9645 5.28452 35.1777 5.3862 33.8989 5.94867C32.4202 6.58853 31.3828 7.88861 31.3828 9.8057C31.3828 12.2589 32.9254 13.4847 34.9125 13.4847C36.5887 13.4847 37.5077 13.0882 38.8024 11.7689C39.2301 12.389 39.3711 12.6882 40.1539 13.3422C40.3313 13.4354 40.5539 13.428 40.7099 13.2866L40.715 13.2923C41.1874 12.8721 42.0446 12.128 42.5263 11.7247C42.7183 11.5659 42.6854 11.3084 42.533 11.0946V11.0946ZM37.8901 10.0348C37.5173 10.6955 36.9206 11.1047 36.2583 11.1047C35.3529 11.1047 34.8258 10.4147 34.8258 9.39587C34.8258 7.3877 36.6266 7.02336 38.332 7.02336V7.53296C38.332 8.44965 38.3548 9.2168 37.8901 10.0348Z" fill="white"/>
<path d="M47.6623 18.0228C43.1624 21.2347 36.8944 22.9694 31.3645 22.9694C23.6184 22.9694 16.7141 20.1655 11.3946 15.3619C10.9026 14.9175 11.2203 14.3964 11.8321 14.748C17.6189 18.0946 24.5542 20.0525 31.831 20.0525C36.7383 20.0525 41.9507 19.0753 46.904 16.9681C47.987 16.5065 48.4359 17.4699 47.6623 18.0228Z" fill="#F9A51B"/>
<path d="M49.5853 15.8548C49.0162 15.1278 45.8383 15.5111 44.4106 15.6797C43.9808 15.7324 43.9108 15.3544 44.3026 15.0812C46.8372 13.3093 50.9923 13.8251 51.4727 14.41C51.9586 15.0116 51.3444 19.1805 48.9697 21.1704C48.6036 21.4786 48.2599 21.3114 48.4211 20.9081C48.954 19.5713 50.1516 16.5792 49.5853 15.8548V15.8548Z" fill="#F9A51B"/>
<path d="M79.3533 11.3389C79.619 11.3389 79.845 11.4323 80.0313 11.6193C80.2174 11.8045 80.3113 12.0298 80.3113 12.2935C80.3113 12.5589 80.2176 12.7846 80.0313 12.971C79.8455 13.1581 79.6199 13.2518 79.3533 13.2518C79.0875 13.2518 78.8617 13.1581 78.676 12.971C78.4908 12.7846 78.3979 12.5587 78.3979 12.2935C78.3979 12.0298 78.4908 11.8045 78.678 11.6193C78.8643 11.4323 79.0902 11.3389 79.3533 11.3389ZM80.4614 12.2913C80.4614 11.986 80.3526 11.7258 80.1369 11.511C79.9209 11.296 79.6584 11.1885 79.3523 11.1885C79.0476 11.1885 78.7881 11.296 78.5718 11.511C78.3561 11.7269 78.2476 11.9867 78.2476 12.2913C78.2476 12.5983 78.3547 12.8602 78.569 13.0759C78.784 13.2934 79.0458 13.4022 79.3519 13.4022C79.6581 13.4022 79.9204 13.2934 80.1367 13.0759C80.3527 12.8598 80.4614 12.5981 80.4614 12.2913V12.2913ZM79.6465 12.0523C79.6465 12.1435 79.6044 12.2055 79.52 12.2389C79.473 12.2572 79.4043 12.2653 79.3128 12.2653H79.1167V11.8323H79.3015C79.4227 11.8323 79.5097 11.8461 79.5651 11.8761C79.6191 11.9063 79.6465 11.9642 79.6465 12.0523ZM78.9075 11.6818V12.8929H79.1166V12.4156H79.2878C79.4036 12.4156 79.4843 12.429 79.5298 12.4542C79.608 12.5003 79.6463 12.5918 79.6463 12.7323V12.8283L79.651 12.867L79.6536 12.8806C79.6555 12.8841 79.6562 12.8889 79.6572 12.8929H79.856L79.8483 12.8774C79.8423 12.867 79.839 12.8467 79.8371 12.8148C79.8346 12.7825 79.8346 12.7528 79.8346 12.7244V12.6364C79.8346 12.5752 79.8116 12.5124 79.7685 12.4477C79.7241 12.3839 79.6554 12.3444 79.5603 12.3297C79.6352 12.3178 79.6935 12.2985 79.7359 12.2711C79.816 12.2192 79.8561 12.1397 79.8561 12.0319C79.8561 11.88 79.7923 11.7779 79.6665 11.7252C79.5959 11.6965 79.485 11.682 79.3338 11.682L78.9075 11.6818Z" fill="white"/>
</svg>

<svg width="81" height="23" fill="none" xmlns="http://www.w3.org/2000/svg">
  <path d="M44.513 2.507V.778a.43.43 0 01.44-.439h7.752c.25 0 .448.181.448.438v1.485c-.003.245-.212.571-.584 1.088L48.55 9.083c1.492-.035 3.07.188 4.425.95.305.173.388.424.411.674v1.849c0 .255-.279.55-.57.397-2.388-1.253-5.555-1.39-8.193.015-.27.144-.551-.145-.551-.4v-1.76c0-.28.004-.76.287-1.188l4.652-6.676h-4.05a.433.433 0 01-.448-.437zm-28.28 10.81h-2.36a.442.442 0 01-.421-.399l.002-12.11c0-.241.202-.436.455-.436L16.105.37c.23.013.414.186.43.407V2.36h.043C17.148.83 18.229.116 19.68.116c1.476 0 2.398.715 3.06 2.244.574-1.53 1.872-2.244 3.26-2.244.991 0 2.07.409 2.73 1.326.75 1.017.595 2.497.595 3.794v7.644a.446.446 0 01-.456.436h-2.356a.44.44 0 01-.423-.434l-.001-6.421c0-.51.043-1.782-.067-2.269-.178-.815-.706-1.044-1.388-1.044-.57 0-1.166.382-1.41.994-.24.612-.22 1.63-.22 2.319v6.419a.445.445 0 01-.454.436h-2.356a.441.441 0 01-.424-.434l-.003-6.422c0-1.351.221-3.338-1.451-3.338-1.697 0-1.63 1.939-1.63 3.338l-.002 6.42c0 .243-.2.437-.452.437zM59.829.117c3.498 0 5.396 3.006 5.396 6.828 0 3.693-2.096 6.627-5.396 6.627-3.436 0-5.309-3.012-5.309-6.756 0-3.769 1.894-6.7 5.31-6.7zm.023 2.47C58.11 2.587 58 4.959 58 6.433c0 1.478-.023 4.637 1.83 4.637 1.823 0 1.91-2.547 1.91-4.098 0-1.02-.043-2.243-.352-3.212-.264-.842-.792-1.173-1.536-1.173zm9.91 10.73h-2.351a.44.44 0 01-.424-.434L66.982.768a.448.448 0 01.454-.396l2.19-.001a.448.448 0 01.42.34v1.851h.045C70.75.907 71.67.116 73.3.116c1.059 0 2.096.383 2.756 1.429.613.965.613 2.597.613 3.769v7.62a.447.447 0 01-.447.383h-2.369a.45.45 0 01-.42-.383V6.359c0-1.323.156-3.262-1.477-3.262-.573 0-1.096.383-1.361.97-.33.74-.373 1.476-.373 2.292v6.521a.453.453 0 01-.46.437zM11.61 11.095c-.429-.598-.888-1.08-.888-2.186V5.233c0-1.555.111-2.985-1.038-4.057C8.778.306 7.28 0 6.13 0 3.885 0 1.38.838.856 3.612c-.056.296.158.45.352.494l2.286.248c.213-.011.369-.223.41-.435C4.1 2.962 4.9 2.502 5.8 2.502c.483 0 1.035.18 1.323.613.331.484.287 1.15.287 1.712v.304c-1.37.154-3.157.255-4.435.818-1.479.64-2.515 1.94-2.515 3.857 0 2.453 1.544 3.679 3.528 3.679 1.681 0 2.595-.397 3.891-1.716.429.62.569.92 1.352 1.573.176.093.4.086.557-.055l.006.005c.471-.42 1.328-1.164 1.808-1.567.191-.16.157-.417.007-.63zm-4.641-1.06c-.376.66-.97 1.07-1.632 1.07-.905 0-1.435-.69-1.435-1.71 0-2.007 1.803-2.372 3.51-2.372v.51c0 .917.02 1.684-.443 2.502zm35.564 1.06c-.432-.598-.89-1.08-.89-2.186V5.233c0-1.555.11-2.985-1.04-4.057C39.703.306 38.2 0 37.054 0c-2.244 0-4.749.838-5.274 3.612-.056.296.159.45.352.494l2.285.248c.216-.011.37-.223.41-.435.199-.957.996-1.417 1.897-1.417.484 0 1.037.18 1.323.613.33.484.286 1.15.286 1.712v.304c-1.367.154-3.154.255-4.433.818-1.479.64-2.516 1.94-2.516 3.857 0 2.453 1.542 3.679 3.53 3.679 1.676 0 2.595-.397 3.89-1.716.427.62.568.92 1.35 1.573.178.093.4.086.557-.055l.005.005c.472-.42 1.33-1.164 1.811-1.567.192-.16.16-.417.007-.63zm-4.643-1.06c-.373.66-.97 1.07-1.632 1.07-.905 0-1.432-.69-1.432-1.71 0-2.007 1.8-2.372 3.506-2.372v.51c0 .917.023 1.684-.442 2.502z" fill="#fff"/>
  <path d="M47.662 18.023c-4.5 3.212-10.768 4.946-16.297 4.946-7.747 0-14.65-2.803-19.97-7.607-.492-.444-.175-.966.437-.614 5.787 3.347 12.722 5.304 19.999 5.304 4.907 0 10.12-.977 15.073-3.084 1.083-.462 1.532.502.758 1.055z" fill="#F9A51B"/>
  <path d="M49.585 15.855c-.569-.727-3.747-.344-5.174-.175-.43.052-.5-.326-.108-.599 2.534-1.772 6.69-1.256 7.17-.671.486.602-.129 4.77-2.503 6.76-.366.309-.71.141-.549-.262.533-1.337 1.73-4.329 1.164-5.053z" fill="#F9A51B"/>
  <path d="M79.353 11.339c.266 0 .492.093.678.28.186.186.28.41.28.675a.923.923 0 01-.28.677.92.92 0 01-.678.28.919.919 0 01-.677-.28.926.926 0 01-.278-.678c0-.263.093-.488.28-.674a.92.92 0 01.675-.28zm1.108.952c0-.305-.108-.565-.324-.78a1.073 1.073 0 00-.785-.322c-.304 0-.564.107-.78.322a1.064 1.064 0 00-.324.78c0 .307.107.57.321.785.215.217.477.326.783.326.306 0 .568-.109.785-.326a1.07 1.07 0 00.324-.785zm-.814-.239a.185.185 0 01-.127.187.602.602 0 01-.207.026h-.196v-.433h.184a.58.58 0 01.264.044c.054.03.082.088.082.176zm-.74-.37v1.21h.21v-.476h.17c.117 0 .197.013.243.038.078.046.116.138.116.278v.096l.005.039.003.014c.002.003.002.008.003.012h.199l-.008-.016a.164.164 0 01-.01-.062c-.003-.032-.003-.062-.003-.09v-.089a.343.343 0 00-.066-.188.294.294 0 00-.209-.118.457.457 0 00.176-.059c.08-.052.12-.131.12-.24 0-.151-.064-.253-.19-.306a.946.946 0 00-.332-.043h-.427z" fill="#fff"/>
</svg>
